images/16760554.svg

<?xml version="1.0" encoding="UTF-8"?>
<svg xmlns="http://www.w3.org/2000/svg" xmlns:xlink="http://www.w3.org/1999/xlink" width="300pt" height="300pt" viewBox="0 0 300 300" version="1.1">
<defs>
<g>
<symbol overflow="visible" id="glyph0-0">
<path style="stroke:none;" d="M 0.59375 2.125 L 0.59375 -8.46875 L 6.59375 -8.46875 L 6.59375 2.125 Z M 1.265625 1.453125 L 5.9375 1.453125 L 5.9375 -7.78125 L 1.265625 -7.78125 Z M 1.265625 1.453125 "/>
</symbol>
<symbol overflow="visible" id="glyph0-1">
<path style="stroke:none;" d="M 1.171875 -8.75 L 2.359375 -8.75 L 2.359375 -5.15625 L 6.65625 -5.15625 L 6.65625 -8.75 L 7.84375 -8.75 L 7.84375 0 L 6.65625 0 L 6.65625 -4.171875 L 2.359375 -4.171875 L 2.359375 0 L 1.171875 0 Z M 1.171875 -8.75 "/>
</symbol>
<symbol overflow="visible" id="glyph0-2">
<path style="stroke:none;" d="M 4.734375 -7.953125 C 3.867188 -7.953125 3.179688 -7.628906 2.671875 -6.984375 C 2.171875 -6.347656 1.921875 -5.472656 1.921875 -4.359375 C 1.921875 -3.265625 2.171875 -2.394531 2.671875 -1.75 C 3.179688 -1.113281 3.867188 -0.796875 4.734375 -0.796875 C 5.585938 -0.796875 6.265625 -1.113281 6.765625 -1.75 C 7.273438 -2.394531 7.53125 -3.265625 7.53125 -4.359375 C 7.53125 -5.472656 7.273438 -6.347656 6.765625 -6.984375 C 6.265625 -7.628906 5.585938 -7.953125 4.734375 -7.953125 Z M 4.734375 -8.90625 C 5.953125 -8.90625 6.925781 -8.492188 7.65625 -7.671875 C 8.394531 -6.847656 8.765625 -5.742188 8.765625 -4.359375 C 8.765625 -2.984375 8.394531 -1.882812 7.65625 -1.0625 C 6.925781 -0.238281 5.953125 0.171875 4.734375 0.171875 C 3.503906 0.171875 2.519531 -0.238281 1.78125 -1.0625 C 1.039062 -1.882812 0.671875 -2.984375 0.671875 -4.359375 C 0.671875 -5.742188 1.039062 -6.847656 1.78125 -7.671875 C 2.519531 -8.492188 3.503906 -8.90625 4.734375 -8.90625 Z M 4.734375 -8.90625 "/>
</symbol>
</g>
</defs>
<g id="surface41029">
<rect x="0" y="0" width="300" height="300" style="fill:rgb(100%,100%,100%);fill-opacity:1;stroke:none;"/>
<path style="fill:none;stroke-width:1;stroke-linecap:butt;stroke-linejoin:miter;stroke:rgb(0%,0%,0%);stroke-opacity:1;stroke-miterlimit:10;" d="M 84.679688 144.890625 L 84.679688 144.890625 M 83.8125 142.019531 L 82.882812 142.488281 M 82.941406 139.148438 L 81.082031 140.089844 M 82.074219 136.277344 L 79.28125 137.6875 M 81.203125 133.40625 L 77.480469 135.289062 M 80.332031 130.535156 L 75.683594 132.890625 M 79.464844 127.660156 L 73.882812 130.488281 M 78.59375 124.789062 L 72.082031 128.089844 M 77.722656 121.917969 L 70.28125 125.6875 M 76.855469 119.046875 L 68.480469 123.289062 M 75.984375 116.175781 L 66.683594 120.886719 M 75.734375 115.347656 L 66.160156 120.195312 "/>
<path style="fill:none;stroke-width:1.2;stroke-linecap:butt;stroke-linejoin:miter;stroke:rgb(0%,0%,0%);stroke-opacity:1;stroke-miterlimit:10;" d="M 84.679688 144.890625 L 103.867188 121.3125 "/>
<path style="fill:none;stroke-width:1.2;stroke-linecap:butt;stroke-linejoin:miter;stroke:rgb(0%,0%,0%);stroke-opacity:1;stroke-miterlimit:10;" d="M 95.503906 173.292969 L 84.679688 144.890625 "/>
<path style="fill:none;stroke-width:1.2;stroke-linecap:butt;stroke-linejoin:miter;stroke:rgb(0%,0%,0%);stroke-opacity:1;stroke-miterlimit:10;" d="M 54.320312 146.40625 L 84.679688 144.890625 "/>
<path style="fill:none;stroke-width:1.2;stroke-linecap:butt;stroke-linejoin:miter;stroke:rgb(0%,0%,0%);stroke-opacity:1;stroke-miterlimit:10;" d="M 103.867188 121.3125 L 133.878906 126.140625 "/>
<path style="fill:none;stroke-width:1.2;stroke-linecap:butt;stroke-linejoin:miter;stroke:rgb(0%,0%,0%);stroke-opacity:1;stroke-miterlimit:10;" d="M 133.878906 126.140625 L 144.703125 154.546875 "/>
<path style="fill:none;stroke-width:1.2;stroke-linecap:butt;stroke-linejoin:miter;stroke:rgb(0%,0%,0%);stroke-opacity:1;stroke-miterlimit:10;" d="M 144.703125 154.546875 L 125.515625 178.121094 "/>
<path style="fill:none;stroke-width:1.2;stroke-linecap:butt;stroke-linejoin:miter;stroke:rgb(0%,0%,0%);stroke-opacity:1;stroke-miterlimit:10;" d="M 174.714844 159.375 L 144.703125 154.546875 "/>
<path style="fill:none;stroke-width:1.2;stroke-linecap:butt;stroke-linejoin:miter;stroke:rgb(0%,0%,0%);stroke-opacity:1;stroke-miterlimit:10;" d="M 125.515625 178.121094 L 95.503906 173.292969 "/>
<path style="fill:none;stroke-width:1.2;stroke-linecap:butt;stroke-linejoin:miter;stroke:rgb(0%,0%,0%);stroke-opacity:1;stroke-miterlimit:10;" d="M 125.515625 178.121094 L 136.339844 206.527344 "/>
<path style="fill:none;stroke-width:1.2;stroke-linecap:butt;stroke-linejoin:miter;stroke:rgb(0%,0%,0%);stroke-opacity:1;stroke-miterlimit:10;" d="M 95.503906 173.292969 L 71.835938 192.367188 "/>
<path style="fill:none;stroke-width:1.2;stroke-linecap:butt;stroke-linejoin:miter;stroke:rgb(0%,0%,0%);stroke-opacity:1;stroke-miterlimit:10;" d="M 71.835938 192.367188 L 46.382812 175.75 "/>
<path style="fill:none;stroke-width:1.2;stroke-linecap:butt;stroke-linejoin:miter;stroke:rgb(0%,0%,0%);stroke-opacity:1;stroke-miterlimit:10;" d="M 46.382812 175.75 L 54.320312 146.40625 "/>
<path style="fill:none;stroke-width:1;stroke-linecap:butt;stroke-linejoin:miter;stroke:rgb(0%,0%,0%);stroke-opacity:1;stroke-miterlimit:10;" d="M 54.320312 146.40625 L 54.320312 146.40625 M 52.875 143.777344 L 52.0625 144.433594 M 51.425781 141.152344 L 49.804688 142.460938 M 49.980469 138.523438 L 47.542969 140.484375 M 48.53125 135.894531 L 45.285156 138.511719 M 47.082031 133.269531 L 43.023438 136.539062 M 45.636719 130.640625 L 40.765625 134.566406 M 44.1875 128.011719 L 38.503906 132.59375 M 42.742188 125.386719 L 36.246094 130.617188 M 41.292969 122.757812 L 33.984375 128.644531 M 39.84375 120.128906 L 31.726562 126.671875 M 39.425781 119.371094 L 31.074219 126.101562 "/>
<path style=" stroke:none;fill-rule:nonzero;fill:rgb(100%,100%,100%);fill-opacity:1;" d="M 16.25 115.734375 L 35.25 115.734375 L 35.25 129.734375 L 16.25 129.734375 Z M 16.25 115.734375 "/>
<g style="fill:rgb(100%,0%,0%);fill-opacity:1;">
  <use xlink:href="#glyph0-1" x="16.25" y="126.873047"/>
  <use xlink:href="#glyph0-2" x="25.273438" y="126.873047"/>
</g>
<path style="fill:none;stroke-width:1.2;stroke-linecap:butt;stroke-linejoin:miter;stroke:rgb(0%,0%,0%);stroke-opacity:1;stroke-miterlimit:10;" d="M 136.339844 206.527344 L 166.351562 211.355469 "/>
<path style="fill:none;stroke-width:1.2;stroke-linecap:butt;stroke-linejoin:miter;stroke:rgb(0%,0%,0%);stroke-opacity:1;stroke-miterlimit:10;" d="M 166.351562 211.355469 L 185.539062 187.777344 "/>
<path style="fill:none;stroke-width:1.2;stroke-linecap:butt;stroke-linejoin:miter;stroke:rgb(0%,0%,0%);stroke-opacity:1;stroke-miterlimit:10;" d="M 185.539062 187.777344 L 215.550781 192.605469 "/>
<path style="fill:none;stroke-width:1.2;stroke-linecap:butt;stroke-linejoin:miter;stroke:rgb(0%,0%,0%);stroke-opacity:1;stroke-miterlimit:10;" d="M 189.675781 181.199219 L 213.6875 185.0625 "/>
<path style="fill:none;stroke-width:1.2;stroke-linecap:butt;stroke-linejoin:miter;stroke:rgb(0%,0%,0%);stroke-opacity:1;stroke-miterlimit:10;" d="M 174.714844 159.375 L 185.539062 187.777344 "/>
<path style="fill:none;stroke-width:1.2;stroke-linecap:butt;stroke-linejoin:miter;stroke:rgb(0%,0%,0%);stroke-opacity:1;stroke-miterlimit:10;" d="M 215.550781 192.605469 L 234.738281 169.03125 "/>
<path style="fill:none;stroke-width:1.2;stroke-linecap:butt;stroke-linejoin:miter;stroke:rgb(0%,0%,0%);stroke-opacity:1;stroke-miterlimit:10;" d="M 234.738281 169.03125 L 223.914062 140.625 "/>
<path style="fill:none;stroke-width:1.2;stroke-linecap:butt;stroke-linejoin:miter;stroke:rgb(0%,0%,0%);stroke-opacity:1;stroke-miterlimit:10;" d="M 226.972656 168.738281 L 218.3125 146.011719 "/>
<path style="fill:none;stroke-width:1.2;stroke-linecap:butt;stroke-linejoin:miter;stroke:rgb(0%,0%,0%);stroke-opacity:1;stroke-miterlimit:10;" d="M 234.738281 169.03125 L 249.746094 171.445312 "/>
<path style="fill:none;stroke-width:1.2;stroke-linecap:butt;stroke-linejoin:miter;stroke:rgb(100%,0%,0%);stroke-opacity:1;stroke-miterlimit:10;" d="M 249.746094 171.445312 L 264.75 173.859375 "/>
<path style="fill:none;stroke-width:1.2;stroke-linecap:butt;stroke-linejoin:miter;stroke:rgb(0%,0%,0%);stroke-opacity:1;stroke-miterlimit:10;" d="M 223.914062 140.625 L 193.902344 135.796875 "/>
<path style="fill:none;stroke-width:1.2;stroke-linecap:butt;stroke-linejoin:miter;stroke:rgb(0%,0%,0%);stroke-opacity:1;stroke-miterlimit:10;" d="M 223.914062 140.625 L 233.507812 128.835938 "/>
<path style="fill:none;stroke-width:1.2;stroke-linecap:butt;stroke-linejoin:miter;stroke:rgb(100%,0%,0%);stroke-opacity:1;stroke-miterlimit:10;" d="M 233.507812 128.835938 L 243.101562 117.050781 "/>
<path style="fill:none;stroke-width:1.2;stroke-linecap:butt;stroke-linejoin:miter;stroke:rgb(0%,0%,0%);stroke-opacity:1;stroke-miterlimit:10;" d="M 193.902344 135.796875 L 174.714844 159.375 "/>
<path style="fill:none;stroke-width:1.2;stroke-linecap:butt;stroke-linejoin:miter;stroke:rgb(0%,0%,0%);stroke-opacity:1;stroke-miterlimit:10;" d="M 197.53125 142.667969 L 182.183594 161.53125 "/>
<path style="fill:none;stroke-width:1.2;stroke-linecap:butt;stroke-linejoin:miter;stroke:rgb(100%,0%,0%);stroke-opacity:1;stroke-miterlimit:10;" d="M 243.101562 117.050781 L 237.6875 102.847656 "/>
<path style="fill:none;stroke-width:1.2;stroke-linecap:butt;stroke-linejoin:miter;stroke:rgb(0%,0%,0%);stroke-opacity:1;stroke-miterlimit:10;" d="M 237.6875 102.847656 L 232.277344 88.644531 "/>
<path style=" stroke:none;fill-rule:nonzero;fill:rgb(100%,100%,100%);fill-opacity:1;" d="M 238.101562 110.050781 L 248.101562 110.050781 L 248.101562 124.050781 L 238.101562 124.050781 Z M 238.101562 110.050781 "/>
<g style="fill:rgb(100%,0%,0%);fill-opacity:1;">
  <use xlink:href="#glyph0-2" x="238.101562" y="121.189453"/>
</g>
<path style=" stroke:none;fill-rule:nonzero;fill:rgb(100%,100%,100%);fill-opacity:1;" d="M 255.75 166.859375 L 274.75 166.859375 L 274.75 180.859375 L 255.75 180.859375 Z M 255.75 166.859375 "/>
<g style="fill:rgb(100%,0%,0%);fill-opacity:1;">
  <use xlink:href="#glyph0-2" x="255.75" y="177.998047"/>
  <use xlink:href="#glyph0-1" x="265.195312" y="177.998047"/>
</g>
</g>
</svg>

<svg xmlns="http://www.w3.org/2000/svg" xmlns:xlink="http://www.w3.org/1999/xlink" width="300pt" height="300pt" viewBox="0 0 300 300"><defs><symbol overflow="visible"><path d="M.594 2.125V-8.47h6V2.126zm.672-.672h4.671V-7.78h-4.67zm0 0"/></symbol><symbol overflow="visible" id="a"><path d="M1.172-8.75H2.36v3.594h4.296V-8.75h1.188V0H6.656v-4.172H2.36V0H1.17zm0 0"/></symbol><symbol overflow="visible" id="b"><path d="M4.734-7.953c-.867 0-1.554.324-2.062.97-.5.635-.75 1.51-.75 2.624 0 1.094.25 1.965.75 2.61.508.637 1.195.953 2.062.953.852 0 1.532-.316 2.032-.953.507-.645.765-1.516.765-2.61 0-1.113-.257-1.988-.764-2.624-.5-.645-1.18-.97-2.032-.97zm0-.953c1.22 0 2.192.414 2.922 1.234.74.824 1.11 1.93 1.11 3.313 0 1.376-.37 2.477-1.11 3.298C6.926-.24 5.953.17 4.734.17c-1.23 0-2.214-.41-2.953-1.234C1.04-1.882.673-2.984.673-4.36c0-1.382.367-2.488 1.11-3.312.738-.82 1.722-1.234 2.952-1.234zm0 0"/></symbol></defs><g><path fill="#fff" d="M0 0h300v300H0z"/><path d="M84.68 144.89m-.868-2.87l-.93.468m.06-3.34l-1.86.942m.992-3.813l-2.793 1.41m1.923-4.28l-3.723 1.882m2.852-4.755l-4.648 2.356m3.78-5.23l-5.58 2.828m4.71-5.7l-6.512 3.302m5.64-6.172l-7.44 3.77m6.573-6.64l-8.375 4.24m7.504-7.112l-9.3 4.71m9.05-5.538l-9.574 4.847" stroke="#000" stroke-miterlimit="10" fill="none"/><path d="M84.68 144.89l19.187-23.577M95.504 173.293L84.68 144.89M54.32 146.406l30.36-1.515M103.867 121.313l30.012 4.828M133.88 126.14l10.823 28.407M144.703 154.547l-19.187 23.574M174.715 159.375l-30.012-4.828M125.516 178.12l-30.012-4.827M125.516 178.12l10.824 28.407M95.504 173.293l-23.668 19.074M71.836 192.367L46.383 175.75M46.383 175.75l7.937-29.344" stroke-width="1.2" stroke="#000" stroke-miterlimit="10" fill="none"/><path d="M54.32 146.406m-1.445-2.63l-.813.658m-.636-3.282l-1.62 1.31m.174-3.94l-2.437 1.962m.988-4.59l-3.245 2.618m1.797-5.242l-4.06 3.27m2.615-5.9l-4.87 3.926m3.42-6.554l-5.683 4.582m4.238-7.207l-6.496 5.23m5.047-7.86l-7.31 5.888m5.86-8.516l-8.116 6.542m7.7-7.3l-8.353 6.73" stroke="#000" stroke-miterlimit="10" fill="none"/><path d="M16.25 115.734h19v14h-19zm0 0" fill="#fff"/><g fill="#f00"><use xlink:href="#a" x="16.25" y="126.873"/><use xlink:href="#b" x="25.273" y="126.873"/></g><path d="M136.34 206.527l30.012 4.828M166.352 211.355l19.187-23.578M185.54 187.777l30.01 4.828M189.676 181.2l24.012 3.863M174.715 159.375l10.824 28.402M215.55 192.605l19.188-23.574M234.738 169.03l-10.824-28.405M226.973 168.738l-8.66-22.726M234.738 169.03l15.008 2.415" stroke-width="1.2" stroke="#000" stroke-miterlimit="10" fill="none"/><path d="M249.746 171.445l15.004 2.414" stroke-width="1.2" stroke="#f00" stroke-miterlimit="10" fill="none"/><path d="M223.914 140.625l-30.012-4.828M223.914 140.625l9.594-11.79" stroke-width="1.2" stroke="#000" stroke-miterlimit="10" fill="none"/><path d="M233.508 128.836l9.594-11.785" stroke-width="1.2" stroke="#f00" stroke-miterlimit="10" fill="none"/><path d="M193.902 135.797l-19.187 23.578M197.53 142.668l-15.346 18.863" stroke-width="1.2" stroke="#000" stroke-miterlimit="10" fill="none"/><path d="M243.102 117.05l-5.415-14.202" stroke-width="1.2" stroke="#f00" stroke-miterlimit="10" fill="none"/><path d="M237.688 102.848l-5.41-14.203" stroke-width="1.2" stroke="#000" stroke-miterlimit="10" fill="none"/><path d="M238.102 110.05h10v14h-10zm0 0" fill="#fff"/><use xlink:href="#b" x="238.102" y="121.189" fill="#f00"/><path d="M255.75 166.86h19v14h-19zm0 0" fill="#fff"/><g fill="#f00"><use xlink:href="#b" x="255.75" y="177.998"/><use xlink:href="#a" x="265.195" y="177.998"/></g></g></svg>
